static/assets/images/protocols/zerolend-mono.svg

<svg width="283" height="331" viewBox="0 0 283 331" fill="none" xmlns="http://www.w3.org/2000/svg">
<path fill-rule="evenodd" clip-rule="evenodd" d="M246.165 15.425C209.04 -10.5705 157.941 -1.64887 138.005 26.8221L10.3646 209.111C-9.57094 237.582 -0.679565 288.939 36.4458 314.935C73.5711 340.93 124.872 331.72 144.808 303.249L272.448 120.96C292.383 92.4891 283.29 41.4204 246.165 15.425ZM154.189 63.2355C169.301 41.6534 199.096 36.4418 220.737 51.595C242.378 66.7483 247.671 96.5282 232.559 118.11L128.308 266.995C113.196 288.578 83.402 293.789 61.7608 278.636C40.1197 263.483 34.8268 233.703 49.9388 212.12L154.189 63.2355Z" fill="black"/>
</svg>

<svg xmlns="http://www.w3.org/2000/svg" fill="none" viewBox="0 0 283 331"><path fill="#000" fill-rule="evenodd" d="M246.165 15.425C209.04-10.57 157.941-1.649 138.005 26.822L10.365 209.111C-9.571 237.582-.68 288.939 36.445 314.935s88.427 16.785 108.363-11.686l127.64-182.289c19.935-28.47 10.842-79.54-26.283-105.535m-91.976 47.81c15.112-21.582 44.907-26.793 66.548-11.64s26.934 44.933 11.822 66.515L128.308 266.995c-15.112 21.583-44.906 26.794-66.547 11.641s-26.934-44.933-11.822-66.516z" clip-rule="evenodd"/></svg>
